X: 8
T: Banish Misfortune
Z: Madeleine Townley
S: https://thesession.org/tunes/9#setting40999
R: jig
M: 6/8
L: 1/8
K: Dmix
|:fed cAG|A2d cAG|F>FF D>DD|F2G AGF|
G2A cAG|AGA cde|fed cAG|Ad^c d3:|
|:f2d d^cd|f2g agf|e2c cBc|e2f gfe|
f2g agf|e2f gfe|fed cAG|Ad^c d3:|
|:f2g e2f|d2e c2d|ABA GAG|FGF FED|
c3 cAG|AGA cde|fed cAG|Ad^c d3:|

